packages/ui-icons/svg/Line/edit.svg

<svg viewBox="0 0 1920 1920" version="1.1" xmlns="http://www.w3.org/2000/svg">
    <path d="M277.974095,49.0764867 C343.241473,-16.3028415 449.706783,-16.4147924 515.421964,49.0764867 L515.421964,49.0764867 L747.608139,281.262662 L1803.30517,1337.07164 L1919.95801,1920 L1337.02965,1803.34716 L386.902325,853.331783 L466.051615,774.182494 L1267.84399,1575.86292 L1575.82093,1267.88598 L668.45885,360.411952 L281.220672,747.65013 L49.0344961,515.463954 C-16.344832,449.860724 -16.344832,343.395414 49.0344961,278.016086 L49.0344961,278.016086 Z M1654.97022,1347.03527 L1346.99328,1655.01221 L1392.1095,1700.12842 L1777.10866,1777.15065 L1700.08643,1392.15149 L1654.97022,1347.03527 Z M675.355026,596.258922 L1367.65942,1288.56331 L1288.51013,1367.7126 L596.205736,675.408211 L675.355026,596.258922 Z M396.642054,111.880944 C382.312338,111.880944 368.094573,117.254587 357.123385,128.225776 L357.123385,128.225776 L128.183785,357.165375 C106.46531,378.883851 106.46531,414.484238 128.183785,436.314665 L128.183785,436.314665 L281.220672,589.351551 L589.30956,281.262662 L436.272674,128.225776 C425.301486,117.254587 410.97177,111.880944 396.642054,111.880944 Z" stroke="none" stroke-width="1" fill-rule="evenodd"/>
</svg>

<svg viewBox="0 0 1920 1920" version="1.1" xmlns="http://www.w3.org/2000/svg">
    <path d="M1803.305 1337.072L1919.958 1920l-582.928-116.653-950.128-950.015 79.15-79.15 801.792 801.68 307.977-307.976-907.362-907.474L281.22 747.65 49.034 515.464c-65.379-65.603-65.379-172.069 0-237.448l228.94-228.94c65.267-65.379 171.733-65.49 237.448 0l232.186 232.187 1055.697 1055.809zm-411.196 363.056l385 77.023-77.023-385-45.116-45.116-307.977 307.977 45.117 45.116zM281.222 589.352l308.089-308.09-59.11-59.11-93.927-93.926c-10.972-10.971-25.301-16.345-39.63-16.345-14.33 0-28.548 5.374-39.52 16.345l-228.94 228.94c-21.718 21.718-21.718 57.318 0 79.149l153.038 153.037zm394.134 6.907l692.304 692.304-79.149 79.15-692.304-692.305 79.149-79.15z" stroke="none" stroke-width="1" fill-rule="evenodd"/>
</svg>
